svg/microphone.svg

<?xml version="1.0" encoding="UTF-8" standalone="no"?>
<svg
   width="25"
   height="25"
   viewBox="0 0 25 25"
   fill="none"
   version="1.1"
   id="svg2"
   sodipodi:docname="microphone.svg"
   inkscape:version="1.4 (86a8ad7, 2024-10-11)"
   xmlns:inkscape="http://www.inkscape.org/namespaces/inkscape"
   xmlns:sodipodi="http://sodipodi.sourceforge.net/DTD/sodipodi-0.dtd"
   xmlns="http://www.w3.org/2000/svg"
   xmlns:svg="http://www.w3.org/2000/svg">
  <defs
     id="defs2" />
  <sodipodi:namedview
     id="namedview2"
     pagecolor="#ffffff"
     bordercolor="#000000"
     borderopacity="0.25"
     inkscape:showpageshadow="2"
     inkscape:pageopacity="0.0"
     inkscape:pagecheckerboard="0"
     inkscape:deskcolor="#d1d1d1"
     inkscape:zoom="31.32"
     inkscape:cx="12.5"
     inkscape:cy="12.5"
     inkscape:window-width="1920"
     inkscape:window-height="1001"
     inkscape:window-x="-9"
     inkscape:window-y="-9"
     inkscape:window-maximized="1"
     inkscape:current-layer="svg2" />
  <g
     id="g2"
     transform="translate(0.27111,-0.1067)">
    <path
       d="m 9.97888,8.1067 c 0,-0.41421 -0.33579,-0.75 -0.75,-0.75 H 8.04485 6.52735 c 0.36751,-2.82127 2.78008,-5 5.70155,-5 2.9214,0 5.334,2.17873 5.7015,5 h -1.5175 -2.684 c -0.4142,0 -0.75,0.33579 -0.75,0.75 0,0.41421 0.3358,0.75 0.75,0.75 h 2.75 1.5 v 1.5 h -1.5 -2.75 c -0.4142,0 -0.75,0.3358 -0.75,0.75 0,0.4142 0.3358,0.75 0.75,0.75 h 2.684 1.5175 c -0.3675,2.8213 -2.7801,5 -5.7015,5 -2.92147,0 -5.33404,-2.1787 -5.70155,-5 h 1.5175 1.18403 c 0.41421,0 0.75,-0.3358 0.75,-0.75 0,-0.4142 -0.33579,-0.75 -0.75,-0.75 h -1.25 -1.5 v -1.5 h 1.5 1.25 c 0.41421,0 0.75,-0.33579 0.75,-0.75 z"
       fill="#2d2d2d"
       id="path1" />
    <path
       fill-rule="evenodd"
       clip-rule="evenodd"
       d="m 4.22888,9.3567 c 0.41421,0 0.75,0.33579 0.75,0.75 v 1 c 0,4.0041 3.24594,7.25 7.25002,7.25 4.0041,0 7.25,-3.2459 7.25,-7.25 v -1 c 0,-0.41421 0.3358,-0.75 0.75,-0.75 0.4142,0 0.75,0.33579 0.75,0.75 v 1 c 0,4.5798 -3.5186,8.3379 -8,8.7183 v 2.2817 c 0,0.4142 -0.3358,0.75 -0.75,0.75 -0.4142,0 -0.75,-0.3358 -0.75,-0.75 V 19.825 C 6.99748,19.4446 3.47888,15.6865 3.47888,11.1067 v -1 c 0,-0.41421 0.33579,-0.75 0.75,-0.75 z"
       fill="#2d2d2d"
       id="path2" />
  </g>
</svg>

<svg width="25" height="25" viewBox="0 0 25 25" fill="none" xmlns="http://www.w3.org/2000/svg">
<path d="M9.97888 8.1067C9.97888 7.69249 9.64309 7.3567 9.22888 7.3567H8.04485H6.52735C6.89486 4.53543 9.30743 2.3567 12.2289 2.3567C15.1503 2.3567 17.5629 4.53543 17.9304 7.3567H16.4129H13.7289C13.3147 7.3567 12.9789 7.69249 12.9789 8.1067C12.9789 8.52091 13.3147 8.8567 13.7289 8.8567H16.4789H17.9789V10.3567H16.4789H13.7289C13.3147 10.3567 12.9789 10.6925 12.9789 11.1067C12.9789 11.5209 13.3147 11.8567 13.7289 11.8567H16.4129H17.9304C17.5629 14.678 15.1503 16.8567 12.2289 16.8567C9.30743 16.8567 6.89486 14.678 6.52735 11.8567H8.04485H9.22888C9.64309 11.8567 9.97888 11.5209 9.97888 11.1067C9.97888 10.6925 9.64309 10.3567 9.22888 10.3567H7.97888H6.47888V8.8567H7.97888H9.22888C9.64309 8.8567 9.97888 8.52091 9.97888 8.1067Z" fill="#2D2D2D"/>
<path fill-rule="evenodd" clip-rule="evenodd" d="M4.22888 9.3567C4.64309 9.3567 4.97888 9.69249 4.97888 10.1067V11.1067C4.97888 15.1108 8.22482 18.3567 12.2289 18.3567C16.233 18.3567 19.4789 15.1108 19.4789 11.1067V10.1067C19.4789 9.69249 19.8147 9.3567 20.2289 9.3567C20.6431 9.3567 20.9789 9.69249 20.9789 10.1067V11.1067C20.9789 15.6865 17.4603 19.4446 12.9789 19.825V22.1067C12.9789 22.5209 12.6431 22.8567 12.2289 22.8567C11.8147 22.8567 11.4789 22.5209 11.4789 22.1067V19.825C6.99748 19.4446 3.47888 15.6865 3.47888 11.1067V10.1067C3.47888 9.69249 3.81467 9.3567 4.22888 9.3567Z" fill="#2D2D2D"/>
</svg>
